X: 32832
T: Port An Amadáin
R: jig
M: 6/8
K: Dmajor
(3ABc|:d2D DEF|GBG ABc|dfa gfe|ded cBA|
d2D DEF|GBG ABc|dfa gec|1 ABc d2(3ABc:|2 ABc d2=c||
K: Gmaj
|:BdB GAB|cec ABc|BdB GAB|ABG FED|
BdB GAB|cec ABc|BdB cAF|1 DEF G2A:|2 DEF G2||

